X:3
T:Glakey Hornpipe
T:Glaikie Hornpipe
S:Flos Headford <flos:madasafish.com> tradtunes 2010-4-7
C:Trad arr. P J Headford
R:jig 32
Z:PJHeadford
M:6/8
L:1/8
Q:3/8=120
K:G
|: Bc | ded ^c2d | B2d GAB | =cdc B2c | A2c A2G | FAd fed |\ 
FAd f2e |1 ded cdc | B3-B :|2 ded cBA | G3-G |] 
|: DC | B,DG BGD | B,DG B2G | CB,C EDE | GFG e3 | d^cd fed |\ 
d^cd fed |1 ded cdc | B3-B :|2 ded cBA | G3-G |] 

